symbols/web/sd_card/materialsymbolssharp/sd_card_wght100gradN25fill1_40px.svg

<svg xmlns="http://www.w3.org/2000/svg" height="40" width="40"><path d="M16.5 17.792h.958v-5.417H16.5Zm4.542 0H22v-5.417h-.958Zm4.541 0h.959v-5.417h-.959ZM8.875 34.417V14.292l8.708-8.709h13.542v28.834Z"/></svg>

<svg xmlns="http://www.w3.org/2000/svg" height="40" width="40"><path d="M16.5 17.792H17.458V12.375H16.5ZM21.042 17.792H22V12.375H21.042ZM25.583 17.792H26.542V12.375H25.583ZM8.875 34.417V14.292L17.583 5.583H31.125V34.417Z"/></svg>
